imagenes/paypal.svg

<svg version="1.1" id="Layer_1" xmlns="http://www.w3.org/2000/svg" xmlns:xlink="http://www.w3.org/1999/xlink" x="0px" y="0px"
	 width="100%" viewBox="0 0 423 119" enable-background="new 0 0 423 119" xml:space="preserve">
<path fill="#FEFEFF" opacity="1.000000" stroke="none" 
	d="
M309.000000,120.000000 
	C206.000015,120.000000 103.500023,120.000000 1.000028,120.000000 
	C1.000018,80.333351 1.000018,40.666702 1.000009,1.000038 
	C141.999969,1.000026 282.999939,1.000026 423.999939,1.000013 
	C423.999939,40.666630 423.999939,80.333260 423.999969,119.999939 
	C385.833344,120.000000 347.666656,120.000000 309.000000,120.000000 
M136.185822,30.547935 
	C132.932617,51.165901 129.679413,71.783867 126.358711,92.829613 
	C131.687775,92.829613 136.259323,92.829613 141.177063,92.829613 
	C142.121094,87.032707 143.189743,81.326080 143.925491,75.576843 
	C144.272141,72.868187 145.354507,71.961937 148.073624,71.935005 
	C153.045761,71.885765 158.137772,72.014130 162.958328,71.007721 
	C173.818741,68.740326 182.344086,57.353737 181.641876,46.940979 
	C180.935379,36.464619 173.509094,29.368021 161.047791,27.989429 
	C154.125061,27.983673 147.199921,27.883083 140.281845,28.059559 
	C139.036179,28.091337 137.819611,29.263859 136.185822,30.547935 
M81.813705,30.397528 
	C78.580307,13.184308 70.164314,6.185087 52.696014,6.183300 
	C43.207523,6.182330 33.717125,6.291727 24.231562,6.125202 
	C20.842274,6.065701 19.212614,6.914755 18.648046,10.634324 
	C14.733516,36.424580 10.629831,62.186680 6.447356,87.935150 
	C5.788861,91.989029 7.026991,93.266541 11.079764,93.220543 
	C16.673132,93.157051 22.273439,93.704941 27.680140,94.778633 
	C26.813839,99.852417 25.987906,104.933533 25.066931,109.997375 
	C24.461342,113.327110 25.384192,115.052582 29.137352,114.880051 
	C33.457047,114.681465 37.796597,114.724655 42.120541,114.870247 
	C45.451473,114.982407 46.744545,113.628151 47.171459,110.274818 
	C48.157345,102.530930 49.811523,94.871559 50.776310,87.125801 
	C51.256969,83.266830 53.015587,82.154076 56.639988,82.087166 
	C61.929073,81.989517 67.451256,82.241852 72.444534,80.828011 
	C84.673203,77.365440 92.302856,69.031540 94.360115,56.316990 
	C96.161530,45.183697 91.370018,36.986107 81.813705,30.397528 
M286.053528,91.550148 
	C289.775360,92.089790 293.492889,92.662018 297.220520,93.158157 
	C299.922729,93.517815 301.027283,92.323135 301.269348,89.542297 
	C301.599915,85.744637 302.734161,82.013191 303.013550,78.215805 
	C303.350586,73.635391 304.780731,71.392555 310.016754,71.892326 
	C317.562103,72.612526 325.084503,71.899307 331.335114,66.834328 
	C338.720428,60.849892 342.732849,53.122055 340.652588,43.600006 
	C338.774536,35.003605 332.768616,29.374001 324.026398,28.581335 
	C314.847473,27.749077 305.534515,28.395100 296.157379,28.395100 
	C292.774933,49.307014 289.430054,69.986519 286.053528,91.550148 
M181.650513,83.678673 
	C187.680191,93.480843 198.019577,96.700218 208.802765,92.210587 
	C210.029465,91.699837 211.469009,91.258469 212.746033,91.392639 
	C216.691345,91.807129 220.593781,92.688744 224.542435,92.962364 
	C225.321259,93.016335 226.811905,91.265213 226.993393,90.182198 
	C229.158768,77.260323 231.155212,64.309898 233.135941,51.357777 
	C233.298523,50.294605 233.432892,48.850994 232.875900,48.123577 
	C231.119934,45.830383 220.083710,47.710716 218.489166,50.427078 
	C207.802963,44.149475 197.319000,44.761383 188.557861,52.174072 
	C179.944595,59.461655 176.993958,71.865265 181.650513,83.678673 
M340.145996,64.024132 
	C340.039642,64.511902 339.940582,65.001381 339.825867,65.487175 
	C337.768738,74.199654 338.026703,82.577721 345.298370,88.881897 
	C352.533173,95.154144 360.823425,95.788361 369.473724,91.665367 
	C370.169952,91.333519 371.514862,90.881935 371.662079,91.097664 
	C374.531647,95.302170 378.740997,92.341080 382.215942,93.139893 
	C385.448334,93.882942 386.556274,91.989052 386.977753,89.080032 
	C388.168518,80.861511 389.541962,72.669647 390.785370,64.458488 
	C391.615967,58.973427 392.347382,53.473331 393.234619,47.190681 
	C387.524597,48.322392 382.057434,44.764984 377.946869,50.117512 
	C361.619659,41.985188 347.775574,46.840702 340.145996,64.024132 
M266.880188,58.358780 
	C264.506256,62.298759 262.132324,66.238739 259.385193,70.798126 
	C257.174286,63.660950 255.276688,57.311333 253.201355,51.020351 
	C252.774994,49.727890 251.760498,47.710567 250.886673,47.639904 
	C246.557205,47.289806 242.184006,47.480347 237.207977,47.480347 
	C241.247986,59.966251 245.071793,71.273743 248.461411,82.709923 
	C249.103928,84.877708 248.665924,87.886421 247.611862,89.933067 
	C245.047302,94.912651 241.827927,99.554993 238.059357,105.647354 
	C242.509186,105.840714 245.952682,105.872162 249.372513,106.172707 
	C252.684113,106.463745 254.743835,105.448982 256.572144,102.361259 
	C266.553925,85.503456 276.835876,68.823502 286.986420,52.065323 
	C287.707214,50.875267 288.201874,49.548214 288.836273,48.211948 
	C277.450836,45.235233 273.608795,46.739357 268.212128,55.983223 
	C267.877411,56.556549 267.552643,57.135674 266.880188,58.358780 
M418.484467,32.153843 
	C419.329773,29.198549 418.465851,27.693628 415.145325,27.919121 
	C412.825500,28.076656 410.472961,28.106352 408.159149,27.909563 
	C405.245209,27.661739 404.136902,28.753027 403.699249,31.713606 
	C401.585297,46.013512 399.206848,60.274200 396.945953,74.552551 
	C396.000305,80.524696 395.113312,86.506126 394.148590,92.817589 
	C399.505493,92.817589 404.061127,92.817589 408.954987,92.817589 
	C412.119629,72.681969 415.238342,52.838806 418.484467,32.153843 
z"/>
<path fill="#033088" opacity="1.000000" stroke="none" 
	d="
M27.870775,93.990967 
	C22.273439,93.704941 16.673132,93.157051 11.079764,93.220543 
	C7.026991,93.266541 5.788861,91.989029 6.447356,87.935150 
	C10.629831,62.186680 14.733516,36.424580 18.648046,10.634324 
	C19.212614,6.914755 20.842274,6.065701 24.231562,6.125202 
	C33.717125,6.291727 43.207523,6.182330 52.696014,6.183300 
	C70.164314,6.185087 78.580307,13.184308 81.759460,30.750139 
	C81.705208,31.102751 81.384872,31.111458 81.025719,30.977201 
	C78.007988,30.007318 75.372238,28.544678 72.686790,28.446890 
	C62.233635,28.066254 51.762295,27.986654 41.304741,28.178230 
	C40.009350,28.201963 37.884380,30.366972 37.624031,31.807306 
	C35.866192,41.532314 34.507294,51.329430 33.004864,61.510750 
	C31.283876,72.609177 29.577326,83.300072 27.870775,93.990967 
z"/>
<path fill="#0270DF" opacity="1.000000" stroke="none" 
	d="
M27.775457,94.384796 
	C29.577326,83.300072 31.283876,72.609177 33.414742,61.430626 
	C39.266640,60.687996 44.712933,60.013847 50.118378,60.255077 
	C67.736275,61.041302 81.673904,45.983360 81.384872,31.111458 
	C81.384872,31.111458 81.705208,31.102751 81.863220,31.137575 
	C91.370018,36.986107 96.161530,45.183697 94.360115,56.316990 
	C92.302856,69.031540 84.673203,77.365440 72.444534,80.828011 
	C67.451256,82.241852 61.929073,81.989517 56.639988,82.087166 
	C53.015587,82.154076 51.256969,83.266830 50.776310,87.125801 
	C49.811523,94.871559 48.157345,102.530930 47.171459,110.274818 
	C46.744545,113.628151 45.451473,114.982407 42.120541,114.870247 
	C37.796597,114.724655 33.457047,114.681465 29.137352,114.880051 
	C25.384192,115.052582 24.461342,113.327110 25.066931,109.997375 
	C25.987906,104.933533 26.813839,99.852417 27.775457,94.384796 
z"/>
<path fill="#0471E0" opacity="1.000000" stroke="none" 
	d="
M286.069366,91.108093 
	C289.430054,69.986519 292.774933,49.307014 296.157379,28.395100 
	C305.534515,28.395100 314.847473,27.749077 324.026398,28.581335 
	C332.768616,29.374001 338.774536,35.003605 340.652588,43.600006 
	C342.732849,53.122055 338.720428,60.849892 331.335114,66.834328 
	C325.084503,71.899307 317.562103,72.612526 310.016754,71.892326 
	C304.780731,71.392555 303.350586,73.635391 303.013550,78.215805 
	C302.734161,82.013191 301.599915,85.744637 301.269348,89.542297 
	C301.027283,92.323135 299.922729,93.517815 297.220520,93.158157 
	C293.492889,92.662018 289.775360,92.089790 286.069366,91.108093 
M325.879578,46.980614 
	C323.313934,39.744740 317.072083,41.987537 311.935791,41.826706 
	C310.770264,41.790211 308.772156,43.466019 308.487213,44.668762 
	C307.476654,48.934174 307.041595,53.335926 306.313538,58.184921 
	C309.879364,58.184921 312.985779,58.345272 316.070038,58.152035 
	C322.798218,57.730503 325.697052,54.605339 325.879578,46.980614 
z"/>
<path fill="#043188" opacity="1.000000" stroke="none" 
	d="
M161.970001,28.142414 
	C173.509094,29.368021 180.935379,36.464619 181.641876,46.940979 
	C182.344086,57.353737 173.818741,68.740326 162.958328,71.007721 
	C158.137772,72.014130 153.045761,71.885765 148.073624,71.935005 
	C145.354507,71.961937 144.272141,72.868187 143.925491,75.576843 
	C143.189743,81.326080 142.121094,87.032707 141.177063,92.829613 
	C136.259323,92.829613 131.687775,92.829613 126.358711,92.829613 
	C129.679413,71.783867 132.932617,51.165901 136.817627,30.127653 
	C141.227585,29.472103 145.006012,29.241720 148.783768,29.000298 
	C153.179504,28.719381 157.574615,28.428799 161.970001,28.142414 
M147.924103,51.331783 
	C147.600830,53.528744 147.277542,55.725704 146.938095,58.032581 
	C151.155411,58.032581 154.795227,58.329128 158.366364,57.960510 
	C163.270401,57.454311 166.718369,53.405655 166.591492,48.956596 
	C166.457199,44.247780 163.707489,41.911541 157.830505,41.675072 
	C155.069687,41.563988 152.300674,41.656044 149.394073,41.656044 
	C148.876862,44.957939 148.446304,47.706627 147.924103,51.331783 
z"/>
<path fill="#053188" opacity="1.000000" stroke="none" 
	d="
M181.432114,83.362709 
	C176.993958,71.865265 179.944595,59.461655 188.557861,52.174072 
	C197.319000,44.761383 207.802963,44.149475 218.489166,50.427078 
	C220.083710,47.710716 231.119934,45.830383 232.875900,48.123577 
	C233.432892,48.850994 233.298523,50.294605 233.135941,51.357777 
	C231.155212,64.309898 229.158768,77.260323 226.993393,90.182198 
	C226.811905,91.265213 225.321259,93.016335 224.542435,92.962364 
	C220.593781,92.688744 216.691345,91.807129 212.746033,91.392639 
	C211.469009,91.258469 210.029465,91.699837 208.802765,92.210587 
	C198.019577,96.700218 187.680191,93.480843 181.432114,83.362709 
M200.228867,60.452480 
	C198.487808,61.945950 196.385727,63.176895 195.073151,64.981949 
	C191.082901,70.469360 192.980911,78.104828 198.700424,80.609062 
	C203.328598,82.635468 209.384003,81.260048 212.735825,77.421074 
	C216.240280,73.407303 216.932755,68.061882 214.462311,64.093994 
	C211.743378,59.726967 207.087601,58.365124 200.228867,60.452480 
z"/>
<path fill="#0471E0" opacity="1.000000" stroke="none" 
	d="
M340.305115,63.654808 
	C347.775574,46.840702 361.619659,41.985188 377.946869,50.117512 
	C382.057434,44.764984 387.524597,48.322392 393.234619,47.190681 
	C392.347382,53.473331 391.615967,58.973427 390.785370,64.458488 
	C389.541962,72.669647 388.168518,80.861511 386.977753,89.080032 
	C386.556274,91.989052 385.448334,93.882942 382.215942,93.139893 
	C378.740997,92.341080 374.531647,95.302170 371.662079,91.097664 
	C371.514862,90.881935 370.169952,91.333519 369.473724,91.665367 
	C360.823425,95.788361 352.533173,95.154144 345.298370,88.881897 
	C338.026703,82.577721 337.768738,74.199654 339.825867,65.487175 
	C339.940582,65.001381 340.039642,64.511902 340.305115,63.654808 
M374.726349,73.604530 
	C376.131500,66.358002 374.320526,62.019039 369.056122,60.018940 
	C363.464111,57.894379 356.638275,60.597118 353.880981,66.027641 
	C351.275940,71.158295 352.442322,76.786041 356.724640,79.747971 
	C361.591644,83.114296 368.496124,81.868370 372.738373,76.810898 
	C373.367340,76.061020 373.798035,75.144814 374.726349,73.604530 
z"/>
<path fill="#063289" opacity="1.000000" stroke="none" 
	d="
M267.051697,58.035439 
	C267.552643,57.135674 267.877411,56.556549 268.212128,55.983223 
	C273.608795,46.739357 277.450836,45.235233 288.836273,48.211948 
	C288.201874,49.548214 287.707214,50.875267 286.986420,52.065323 
	C276.835876,68.823502 266.553925,85.503456 256.572144,102.361259 
	C254.743835,105.448982 252.684113,106.463745 249.372513,106.172707 
	C245.952682,105.872162 242.509186,105.840714 238.059357,105.647354 
	C241.827927,99.554993 245.047302,94.912651 247.611862,89.933067 
	C248.665924,87.886421 249.103928,84.877708 248.461411,82.709923 
	C245.071793,71.273743 241.247986,59.966251 237.207977,47.480347 
	C242.184006,47.480347 246.557205,47.289806 250.886673,47.639904 
	C251.760498,47.710567 252.774994,49.727890 253.201355,51.020351 
	C255.276688,57.311333 257.174286,63.660950 259.385193,70.798126 
	C262.132324,66.238739 264.506256,62.298759 267.051697,58.035439 
z"/>
<path fill="#0471E0" opacity="1.000000" stroke="none" 
	d="
M418.420746,32.574745 
	C415.238342,52.838806 412.119629,72.681969 408.954987,92.817589 
	C404.061127,92.817589 399.505493,92.817589 394.148590,92.817589 
	C395.113312,86.506126 396.000305,80.524696 396.945953,74.552551 
	C399.206848,60.274200 401.585297,46.013512 403.699249,31.713606 
	C404.136902,28.753027 405.245209,27.661739 408.159149,27.909563 
	C410.472961,28.106352 412.825500,28.076656 415.145325,27.919121 
	C418.465851,27.693628 419.329773,29.198549 418.420746,32.574745 
z"/>
<path fill="#001B80" opacity="1.000000" stroke="none" 
	d="
M161.508896,28.065922 
	C157.574615,28.428799 153.179504,28.719381 148.783768,29.000298 
	C145.006012,29.241720 141.227585,29.472103 137.019531,29.808540 
	C137.819611,29.263859 139.036179,28.091337 140.281845,28.059559 
	C147.199921,27.883083 154.125061,27.983673 161.508896,28.065922 
z"/>
<path fill="#001C64" opacity="1.000000" stroke="none" 
	d="
M81.025719,30.977201 
	C81.673904,45.983360 67.736275,61.041302 50.118378,60.255077 
	C44.712933,60.013847 39.266640,60.687996 33.429176,61.023087 
	C34.507294,51.329430 35.866192,41.532314 37.624031,31.807306 
	C37.884380,30.366972 40.009350,28.201963 41.304741,28.178230 
	C51.762295,27.986654 62.233635,28.066254 72.686790,28.446890 
	C75.372238,28.544678 78.007988,30.007318 81.025719,30.977201 
z"/>
<path fill="#FBFCFE" opacity="1.000000" stroke="none" 
	d="
M325.925842,47.380051 
	C325.697052,54.605339 322.798218,57.730503 316.070038,58.152035 
	C312.985779,58.345272 309.879364,58.184921 306.313538,58.184921 
	C307.041595,53.335926 307.476654,48.934174 308.487213,44.668762 
	C308.772156,43.466019 310.770264,41.790211 311.935791,41.826706 
	C317.072083,41.987537 323.313934,39.744740 325.925842,47.380051 
z"/>
<path fill="#FAFAFC" opacity="1.000000" stroke="none" 
	d="
M147.969925,50.893551 
	C148.446304,47.706627 148.876862,44.957939 149.394073,41.656044 
	C152.300674,41.656044 155.069687,41.563988 157.830505,41.675072 
	C163.707489,41.911541 166.457199,44.247780 166.591492,48.956596 
	C166.718369,53.405655 163.270401,57.454311 158.366364,57.960510 
	C154.795227,58.329128 151.155411,58.032581 146.938095,58.032581 
	C147.277542,55.725704 147.600830,53.528744 147.969925,50.893551 
z"/>
<path fill="#F9FAFC" opacity="1.000000" stroke="none" 
	d="
M200.583130,60.295158 
	C207.087601,58.365124 211.743378,59.726967 214.462311,64.093994 
	C216.932755,68.061882 216.240280,73.407303 212.735825,77.421074 
	C209.384003,81.260048 203.328598,82.635468 198.700424,80.609062 
	C192.980911,78.104828 191.082901,70.469360 195.073151,64.981949 
	C196.385727,63.176895 198.487808,61.945950 200.583130,60.295158 
z"/>
<path fill="#F9FBFE" opacity="1.000000" stroke="none" 
	d="
M374.523376,73.955040 
	C373.798035,75.144814 373.367340,76.061020 372.738373,76.810898 
	C368.496124,81.868370 361.591644,83.114296 356.724640,79.747971 
	C352.442322,76.786041 351.275940,71.158295 353.880981,66.027641 
	C356.638275,60.597118 363.464111,57.894379 369.056122,60.018940 
	C374.320526,62.019039 376.131500,66.358002 374.523376,73.955040 
z"/>
</svg>

<svg xmlns="http://www.w3.org/2000/svg" viewBox="0 0 423 119" xml:space="preserve"><path fill="#FEFEFF" d="M309 120H1V1h423v119H309M136.186 30.548l-9.827 62.282h14.818c.944-5.797 2.013-11.504 2.748-17.253.347-2.709 1.43-3.615 4.149-3.642 4.972-.05 10.064.08 14.884-.927 10.86-2.268 19.386-13.654 18.684-24.067-.707-10.476-8.133-17.573-20.594-18.952-6.923-.005-13.848-.106-20.766.07-1.246.032-2.462 1.205-4.096 2.489m-54.372-.15C78.58 13.184 70.164 6.185 52.696 6.183c-9.488 0-18.979.109-28.464-.058-3.39-.06-5.02.79-5.584 4.51-3.914 25.79-8.018 51.552-12.2 77.3-.66 4.054.579 5.332 4.632 5.286a80.819 80.819 0 0 1 16.6 1.558c-.866 5.073-1.692 10.155-2.613 15.218-.606 3.33.317 5.056 4.07 4.883 4.32-.199 8.66-.155 12.984-.01 3.33.112 4.624-1.242 5.05-4.595.986-7.744 2.64-15.403 3.605-23.15.481-3.858 2.24-4.97 5.864-5.038 5.29-.097 10.811.155 15.805-1.259 12.228-3.463 19.858-11.796 21.915-24.511 1.802-11.133-2.99-19.33-12.546-25.92m204.24 61.153c3.721.54 7.439 1.112 11.167 1.608 2.702.36 3.806-.835 4.048-3.616.33-3.797 1.465-7.529 1.745-11.326.337-4.58 1.767-6.823 7.003-6.324 7.545.72 15.068.007 21.318-5.058 7.385-5.984 11.398-13.712 9.318-23.234-1.878-8.596-7.884-14.226-16.627-15.019-9.179-.832-18.491-.186-27.869-.186-3.382 20.912-6.727 41.592-10.103 63.155M181.65 83.68c6.03 9.802 16.369 13.021 27.152 8.532 1.226-.511 2.666-.953 3.943-.818 3.945.414 7.848 1.296 11.796 1.57.78.053 2.27-1.698 2.451-2.78 2.166-12.923 4.162-25.873 6.143-38.825.163-1.063.297-2.507-.26-3.234-1.756-2.294-12.792-.413-14.387 2.303-10.686-6.278-21.17-5.666-29.931 1.747-8.613 7.288-11.564 19.691-6.907 31.505m158.495-19.655c-.106.488-.205.977-.32 1.463-2.057 8.713-1.8 17.09 5.472 23.395 7.235 6.272 15.525 6.906 24.176 2.783.696-.331 2.04-.783 2.188-.567 2.87 4.204 7.079 1.243 10.554 2.042 3.232.743 4.34-1.15 4.762-4.06 1.19-8.218 2.564-16.41 3.807-24.622.831-5.485 1.562-10.985 2.45-17.267-5.71 1.131-11.178-2.426-15.288 2.927-16.327-8.133-30.171-3.277-37.801 13.906M266.88 58.36l-7.495 12.44c-2.21-7.138-4.108-13.488-6.184-19.779-.426-1.292-1.44-3.31-2.314-3.38-4.33-.35-8.703-.16-13.679-.16 4.04 12.486 7.864 23.794 11.253 35.23.643 2.168.205 5.176-.85 7.223-2.564 4.98-5.783 9.622-9.552 15.714 4.45.194 7.894.225 11.314.526 3.311.29 5.37-.724 7.2-3.812 9.98-16.858 20.263-33.537 30.413-50.296.721-1.19 1.216-2.517 1.85-3.853-11.385-2.977-15.227-1.473-20.624 7.771-.335.574-.66 1.153-1.332 2.376m151.604-26.205c.846-2.955-.018-4.46-3.339-4.235-2.32.158-4.672.187-6.986-.01-2.914-.247-4.022.844-4.46 3.805-2.114 14.3-4.492 28.56-6.753 42.839-.946 5.972-1.833 11.953-2.797 18.265h14.806c3.165-20.136 6.283-39.98 9.53-60.664z"/><path fill="#033088" d="M27.87 93.991c-5.597-.286-11.197-.834-16.79-.77-4.053.046-5.291-1.232-4.633-5.286 4.183-25.748 8.287-51.51 12.201-77.3.565-3.72 2.194-4.57 5.584-4.51 9.485.167 18.976.057 28.464.058 17.468.002 25.884 7.001 29.063 24.567-.054.353-.374.361-.733.227-3.018-.97-5.654-2.432-8.34-2.53a573.832 573.832 0 0 0-31.381-.269c-1.296.024-3.42 2.189-3.681 3.63-1.758 9.724-3.117 19.521-4.62 29.703a7300.51 7300.51 0 0 1-5.133 32.48z"/><path fill="#0270DF" d="M27.775 94.385c1.802-11.085 3.509-21.776 5.64-32.954 5.852-.743 11.298-1.417 16.703-1.176 17.618.786 31.556-14.272 31.267-29.144 0 0 .32-.008.478.027 9.507 5.848 14.299 14.046 12.497 25.179-2.057 12.715-9.687 21.048-21.915 24.511-4.994 1.414-10.516 1.162-15.805 1.26-3.624.066-5.383 1.179-5.864 5.038-.964 7.746-2.619 15.405-3.605 23.149-.426 3.353-1.72 4.707-5.05 4.595-4.324-.145-8.664-.189-12.984.01-3.753.173-4.676-1.553-4.07-4.883.92-5.063 1.747-10.145 2.708-15.612z"/><path fill="#0471E0" d="M286.07 91.108c3.36-21.121 6.705-41.801 10.087-62.713 9.378 0 18.69-.646 27.87.186 8.742.793 14.748 6.423 16.626 15.019 2.08 9.522-1.933 17.25-9.318 23.234-6.25 5.065-13.773 5.779-21.318 5.058-5.236-.5-6.666 1.743-7.003 6.324-.28 3.797-1.414 7.529-1.745 11.326-.242 2.781-1.346 3.976-4.048 3.616-3.728-.496-7.446-1.068-11.152-2.05m39.81-44.127c-2.565-7.236-8.807-4.993-13.943-5.154-1.166-.037-3.164 1.639-3.449 2.842-1.01 4.265-1.445 8.667-2.173 13.516 3.565 0 6.672.16 9.756-.033 6.728-.421 9.627-3.547 9.81-11.171z"/><path fill="#043188" d="M161.97 28.142c11.54 1.226 18.965 8.323 19.672 18.799.702 10.413-7.823 21.8-18.684 24.067-4.82 1.006-9.912.878-14.884.927-2.72.027-3.802.933-4.149 3.642-.735 5.75-1.804 11.456-2.748 17.253H126.36c3.32-21.046 6.574-41.664 10.459-62.702 4.41-.656 8.188-.886 11.966-1.128 4.396-.28 8.79-.571 13.186-.858m-14.046 23.19-.986 6.7c4.217 0 7.857.297 11.428-.071 4.904-.507 8.352-4.555 8.225-9.004-.134-4.71-2.884-7.045-8.76-7.282-2.761-.111-5.53-.019-8.437-.019-.517 3.302-.948 6.05-1.47 9.676z"/><path fill="#053188" d="M181.432 83.363c-4.438-11.498-1.487-23.901 7.126-31.189 8.761-7.413 19.245-8.025 29.931-1.747 1.595-2.716 12.63-4.597 14.387-2.303.557.727.423 2.17.26 3.234-1.98 12.952-3.977 25.902-6.143 38.824-.181 1.083-1.672 2.834-2.45 2.78-3.95-.273-7.852-1.155-11.797-1.57-1.277-.134-2.717.308-3.943.819-10.783 4.49-21.123 1.27-27.37-8.848m18.796-22.91c-1.741 1.493-3.843 2.724-5.156 4.529-3.99 5.487-2.092 13.123 3.627 15.627 4.629 2.026 10.684.651 14.036-3.188 3.504-4.014 4.197-9.36 1.726-13.327-2.719-4.367-7.374-5.729-14.233-3.642z"/><path fill="#0471E0" d="M340.305 63.655c7.47-16.814 21.315-21.67 37.642-13.537 4.11-5.353 9.578-1.796 15.288-2.927-.888 6.282-1.619 11.782-2.45 17.267-1.243 8.212-2.616 16.404-3.807 24.622-.422 2.91-1.53 4.803-4.762 4.06-3.475-.799-7.684 2.162-10.554-2.042-.147-.216-1.492.236-2.188.567-8.65 4.123-16.94 3.49-24.176-2.783-7.271-6.304-7.53-14.682-5.472-23.395.115-.486.214-.975.48-1.832m34.42 9.95c1.406-7.247-.405-11.586-5.67-13.586-5.592-2.125-12.418.578-15.175 6.009-2.605 5.13-1.439 10.758 2.844 13.72 4.867 3.366 11.771 2.12 16.013-2.937.63-.75 1.06-1.666 1.988-3.206z"/><path fill="#063289" d="M267.052 58.035c.5-.9.825-1.478 1.16-2.052 5.397-9.244 9.239-10.748 20.624-7.771-.634 1.336-1.129 2.663-1.85 3.853-10.15 16.759-20.432 33.438-30.414 50.296-1.828 3.088-3.888 4.103-7.2 3.812-3.42-.3-6.863-.332-11.313-.526 3.769-6.092 6.988-10.734 9.553-15.714 1.054-2.047 1.492-5.055.85-7.223-3.39-11.436-7.214-22.744-11.254-35.23 4.976 0 9.35-.19 13.679.16.873.07 1.888 2.088 2.314 3.38 2.076 6.291 3.973 12.64 6.184 19.778 2.747-4.56 5.121-8.5 7.667-12.763z"/><path fill="#0471E0" d="M418.42 32.575c-3.182 20.264-6.3 40.107-9.465 60.243h-14.806c.964-6.312 1.851-12.293 2.797-18.265 2.26-14.279 4.64-28.54 6.753-42.84.438-2.96 1.546-4.051 4.46-3.803 2.314.196 4.666.167 6.986.01 3.32-.226 4.185 1.279 3.276 4.655z"/><path fill="#001B80" d="M161.509 28.066c-3.934.363-8.33.653-12.725.934-3.778.242-7.556.472-11.764.809.8-.545 2.016-1.718 3.262-1.75 6.918-.176 13.843-.075 21.227.007z"/><path fill="#001C64" d="M81.026 30.977c.648 15.006-13.29 30.064-30.908 29.278-5.405-.241-10.851.433-16.689.768 1.078-9.694 2.437-19.49 4.195-29.216.26-1.44 2.385-3.605 3.68-3.629a573.832 573.832 0 0 1 31.383.269c2.685.098 5.321 1.56 8.339 2.53z"/><path fill="#FBFCFE" d="M325.926 47.38c-.229 7.225-3.128 10.35-9.856 10.772-3.084.193-6.19.033-9.756.033.728-4.85 1.163-9.25 2.173-13.516.285-1.203 2.283-2.879 3.449-2.842 5.136.16 11.378-2.082 13.99 5.553z"/><path fill="#FAFAFC" d="M147.97 50.894c.476-3.187.907-5.936 1.424-9.238 2.907 0 5.676-.092 8.437.02 5.876.236 8.626 2.572 8.76 7.28.127 4.45-3.32 8.498-8.225 9.005-3.57.368-7.21.072-11.428.072.34-2.307.663-4.504 1.032-7.14z"/><path fill="#F9FAFC" d="M200.583 60.295c6.505-1.93 11.16-.568 13.88 3.799 2.47 3.968 1.777 9.313-1.727 13.327-3.352 3.839-9.407 5.214-14.036 3.188-5.72-2.504-7.617-10.14-3.627-15.627 1.313-1.805 3.415-3.036 5.51-4.687z"/><path fill="#F9FBFE" d="M374.523 73.955c-.725 1.19-1.156 2.106-1.785 2.856-4.242 5.057-11.146 6.303-16.013 2.937-4.283-2.962-5.45-8.59-2.844-13.72 2.757-5.43 9.583-8.134 15.175-6.01 5.265 2.001 7.076 6.34 5.467 13.937z"/></svg>
